src/actions/symbolic/twitter-dm-symbolic.svg

<svg width="16" height="16" version="1.1" xmlns="http://www.w3.org/2000/svg">
 <path d="m4 1-3 5.8164v6.1836c0 1.108 0.892 2 2 2h10c1.108 0 2-0.892 2-2v-6.1836l-3-5.8164h-8zm0.60938 1h6.7812l2.6094 5.0566v0.94336h-3l-1.4805 2h-3.0391l-1.4805-2h-3v-0.94336l2.6094-5.0566zm-2.6094 7h2.4941l1.4805 2h4.0508l1.4805-2h2.4941v4c0 0.554-0.446 1-1 1h-10c-0.554 0-1-0.446-1-1v-4z" fill="currentColor" stroke-linecap="round" stroke-width="2"/>
</svg>

<svg xmlns="http://www.w3.org/2000/svg" width="16" height="16"><path fill="currentColor" d="M4 1 1 6.816V13c0 1.108.892 2 2 2h10c1.108 0 2-.892 2-2V6.816L12 1zm.61 1h6.78L14 7.057V8h-3l-1.48 2H6.48L5 8H2v-.943zM2 9h2.494l1.48 2h4.051l1.48-2H14v4c0 .554-.446 1-1 1H3c-.554 0-1-.446-1-1z"/></svg>
